P3
16 16
255
0 0 0 0 0 0 0 0 0 0 0 0 32 180 255 32 180 255 32 180 255 32 180 255 0 0 0 0 0 0 0 0 0 0 0 0 0 0 0 0 0 0 0 0 0 0
0 0 0 0 0 0 0 0 0 32 180 255 32 180 255 255 255 255 255 255 255 32 180 255 32 180 255 0 0 0 0 0 0 0 0 0 0 0 0 0 0 0 0 0 0
0 0 0 0 0 0 32 180 255 32 180 255 255 255 255 255 255 255 255 255 255 255 255 255 32 180 255 32 180 255 0 0 0 0 0 0 0 0 0 0 0 0
0 0 0 32 180 255 32 180 255 255 255 255 255 220 80 255 220 80 255 220 80 255 255 255 255 255 255 32 180 255 32 180 255 0 0 0 0 0 0 0 0 0
32 180 255 32 180 255 255 255 255 255 220 80 255 220 80 255 220 80 255 220 80 255 220 80 255 255 255 255 255 255 32 180 255 32 180 255 0 0 0 0 0
32 180 255 255 255 255 255 220 80 255 220 80 35 35 45 255 220 80 255 220 80 35 35 45 255 220 80 255 220 80 255 255 255 32 180 255 0 0 0 0 0
32 180 255 255 255 255 255 220 80 255 220 80 255 220 80 255 220 80 255 220 80 255 220 80 255 220 80 255 220 80 255 255 255 32 180 255 0 0 0 0 0
32 180 255 255 255 255 255 220 80 255 220 80 255 220 80 255 220 80 255 220 80 255 220 80 255 220 80 255 220 80 255 255 255 32 180 255 0 0 0 0 0
0 0 0 32 180 255 255 255 255 255 220 80 255 220 80 255 220 80 255 220 80 255 220 80 255 220 80 255 255 255 32 180 255 0 0 0 0 0 0 0 0 0
0 0 0 0 0 0 32 180 255 255 255 255 255 220 80 255 220 80 255 220 80 255 220 80 255 255 255 32 180 255 0 0 0 0 0 0 0 0 0 0 0 0
0 0 0 0 0 0 0 0 0 32 180 255 255 255 255 255 220 80 255 220 80 255 255 255 32 180 255 0 0 0 0 0 0 0 0 0 0 0 0 0 0 0
0 0 0 0 0 0 0 0 0 32 180 255 32 180 255 255 255 255 255 255 255 32 180 255 32 180 255 0 0 0 0 0 0 0 0 0 0 0 0 0 0 0
0 0 0 0 0 0 32 180 255 32 180 255 0 0 0 32 180 255 32 180 255 0 0 0 32 180 255 32 180 255 0 0 0 0 0 0 0 0 0 0 0 0
0 0 0 32 180 255 32 180 255 0 0 0 0 0 0 32 180 255 32 180 255 0 0 0 0 0 0 32 180 255 32 180 255 0 0 0 0 0 0 0 0 0
32 180 255 32 180 255 0 0 0 0 0 0 0 0 0 32 180 255 32 180 255 0 0 0 0 0 0 0 0 0 32 180 255 32 180 255 0 0 0 0 0
32 180 255 0 0 0 0 0 0 0 0 0 0 0 0 0 0 0 0 0 0 0 0 0 0 0 0 0 0 0 0 0 0 32 180 255 32 180 255 0 0 0 0 0
